X: 521
T: Zai liushu
%%abc-version 2.0
%%abcx-abcm2ps-target-version 5.9.1 (29 Sep 2008)
%%abc-creator hum2abc beta
%%abcx-conversion-date 2013/10/02 07:52:30
%%abc-edited-by Helmut Schaffrath
%%humdrum-veritas 499579443
%%humdrum-veritas-data 1599194448
%%continueall 1
%%barnumbers 0
L: 1/8
M: 2/4
K: F
c2A c [I:setbarnb 1]| 
f2d f | 
d c A c | 
G4 | 
G G/ F/ D F | 
G2A c | 
G4 | 
f2d f | 
c Ac2 | 
G2G D | 
C4 | 
G G/ G/C2 | 
G G/ G/C2 | 
A> f d c | 
c DF2 | 
G G/ A/ F D | 
C2D F | 
C4 |]  



